icons/1_Primary/Contabo.svg

<svg xmlns="http://www.w3.org/2000/svg" width="1024" height="1024" fill="none">
   <g clip-path="url(#a)">
      <path fill="#9ABEFF" d="M512 1024c282.77 0 512-229.23 512-512S794.77 0 512 0 0 229.23 0 512s229.23 512 512 512Z"/>
      <path fill="#fff" d="M735.49 457.36a148.51 148.51 0 0 0-105.21-43.66A148.625 148.625 0 0 0 525 457.36L491.07 491l31.75 31.75 33.74-33.79a104.093 104.093 0 0 1 177.65 73.62 104.143 104.143 0 0 1-104 104.14 103.63 103.63 0 0 1-60.38-19.48l-1 1s-23 23.36-30.67 31.29a148.26 148.26 0 0 0 92 32.11A148.997 148.997 0 0 0 779 562.63a148.26 148.26 0 0 0-43.51-105.27Zm-246 179A103.67 103.67 0 0 1 415.92 667a104.142 104.142 0 0 1-104-104.24v-.26a104.002 104.002 0 0 1 104-103.88A103.58 103.58 0 0 1 476 477.91l.87-.92 31.24-31.24a148.672 148.672 0 0 0-92-32.05A149 149 0 0 0 267 562.52a148.87 148.87 0 0 0 148.82 148.87 148.623 148.623 0 0 0 105.26-43.3c2.1-2 33.28-33.74 33.28-33.74l-31.74-31.75-33.13 33.76Zm-79.6-242.54a103.576 103.576 0 0 1 98.82-71.88 103.515 103.515 0 0 1 73.57 30.67 102.255 102.255 0 0 1 25.56 42.89 162.936 162.936 0 0 1 18.66-1.43h7.05c6.963.138 13.912.685 20.81 1.64A148.257 148.257 0 0 0 508.81 277a148.258 148.258 0 0 0-146.72 125.61 168.098 168.098 0 0 1 47.8-8.79Z"/>
   </g>
   <defs>
      <clipPath id="a">
         <path fill="#fff" d="M0 0h1024v1024H0z"/>
      </clipPath>
   </defs>
</svg>

<svg width="1024" height="1024" viewBox="0 0 1024 1024" fill="none" xmlns="http://www.w3.org/2000/svg">
<g clip-path="url(#clip0_2_1884)">
<path d="M512 1024C794.77 1024 1024 794.77 1024 512C1024 229.23 794.77 0 512 0C229.23 0 0 229.23 0 512C0 794.77 229.23 1024 512 1024Z" fill="#9ABEFF"/>
<path d="M735.49 457.36C721.689 443.517 705.292 432.534 687.237 425.042C669.183 417.55 649.827 413.696 630.28 413.7C610.722 413.692 591.355 417.545 573.288 425.037C555.222 432.529 538.812 443.513 525 457.36L491.07 491L522.82 522.75L556.56 488.96C571.121 474.417 589.665 464.516 609.851 460.508C630.037 456.501 650.958 458.567 669.97 466.446C688.982 474.324 705.231 487.662 716.665 504.773C728.1 521.884 734.205 542.001 734.21 562.58C734.21 590.176 723.257 616.643 703.758 636.169C684.258 655.695 657.805 666.683 630.21 666.72C608.542 666.699 587.425 659.886 569.83 647.24L568.83 648.24C568.83 648.24 545.83 671.6 538.16 679.53C564.333 700.293 596.751 711.608 630.16 711.64C669.651 711.598 707.51 695.88 735.419 667.939C763.328 639.999 779.003 602.122 779 562.63C779.046 543.081 775.225 523.716 767.758 505.65C760.291 487.583 749.324 471.172 735.49 457.36ZM489.49 636.36C479.854 646.068 468.393 653.773 455.767 659.031C443.14 664.29 429.598 666.998 415.92 667C388.307 666.963 361.84 655.961 342.337 636.414C322.834 616.866 311.893 590.373 311.92 562.76V562.5C311.952 534.939 322.923 508.517 342.423 489.039C361.924 469.561 388.358 458.62 415.92 458.62C437.466 458.645 458.467 465.388 476 477.91L476.87 476.99L508.11 445.75C481.913 425.037 449.506 413.747 416.11 413.7C376.605 413.671 338.705 429.332 310.744 457.239C282.782 485.146 267.048 523.015 267 562.52C267 601.994 282.678 639.852 310.585 667.77C338.493 695.687 376.346 711.377 415.82 711.39C435.35 711.443 454.698 707.646 472.759 700.216C490.82 692.786 507.24 681.87 521.08 668.09C523.18 666.09 554.36 634.35 554.36 634.35L522.62 602.6L489.49 636.36ZM409.89 393.82C416.612 372.909 429.808 354.676 447.571 341.756C465.334 328.835 486.745 321.896 508.71 321.94C522.391 321.937 535.937 324.646 548.565 329.911C561.193 335.175 572.652 342.89 582.28 352.61C594.213 364.575 602.995 379.311 607.84 395.5C614.027 394.666 620.258 394.189 626.5 394.07H633.55C640.513 394.208 647.462 394.755 654.36 395.71C647.536 362.161 629.312 332.006 602.78 310.368C576.249 288.729 543.047 276.939 508.81 277C473.38 276.952 439.104 289.594 412.19 312.636C385.276 335.678 367.503 367.596 362.09 402.61C377.513 397.38 393.615 394.419 409.89 393.82Z" fill="white"/>
</g>
<defs>
<clipPath id="clip0_2_1884">
<rect width="1024" height="1024" fill="white"/>
</clipPath>
</defs>
</svg>
